src/telerik-icons/solid/border-top.svg

<?xml version="1.0" encoding="utf-8"?>
<svg xmlns="http://www.w3.org/2000/svg" width="512" height="512" viewBox="0 0 512 512">
  <path d="M448 32v32H32V32h416zM64 96H32v32h32V96zm0 96H32v-32h32v32zm0 64H32v-32h32v32zm0 64H32v-32h32v32zm0 64H32v-32h32v32zm384-192h-32v-32h32v32zm0 64h-32v-32h32v32zm0 64h-32v-32h32v32zm0 64h-32v-32h32v32zM128 256H96v-32h32v32zm64 0h-32v-32h32v32zm64-128h-32V96h32v32zm0 64h-32v-32h32v32zm0 64h-32v-32h32v32zm0 64h-32v-32h32v32zm0 64h-32v-32h32v32zm0 64h-32v-32h32v32zM64 416H32v32h32v-32zm64 32H96v-32h32v32zm64 0h-32v-32h32v32zm128-32h-32v32h32v-32zm64 32h-32v-32h32v32zm64 0h-32v-32h32v32zM320 224h-32v32h32v-32zm64 32h-32v-32h32v32zm64-128h-32V96h32v32z"/>
</svg>

<?xml version="1.0" encoding="utf-8"?>
<!-- Generator: Adobe Illustrator 19.2.1, SVG Export Plug-In . SVG Version: 6.00 Build 0)  -->
<svg xmlns="http://www.w3.org/2000/svg" width="512" height="512" viewBox="0 0 512 512">
<path d="M448,32v32H32V32H448z M64,96H32v32h32V96z M64,192H32v-32h32V192z M64,256H32v-32h32V256z M64,320H32v-32h32V320z M64,384
	H32v-32h32V384z M448,192h-32v-32h32V192z M448,256h-32v-32h32V256z M448,320h-32v-32h32V320z M448,384h-32v-32h32V384z M128,256H96
	v-32h32V256z M192,256h-32v-32h32V256z M256,128h-32V96h32V128z M256,192h-32v-32h32V192z M256,256h-32v-32h32V256z M256,320h-32
	v-32h32V320z M256,384h-32v-32h32V384z M256,448h-32v-32h32V448z M64,416H32v32h32V416z M128,448H96v-32h32V448z M192,448h-32v-32
	h32V448z M320,416h-32v32h32V416z M384,448h-32v-32h32V448z M448,448h-32v-32h32V448z M320,224h-32v32h32V224z M384,256h-32v-32h32
	V256z M448,128h-32V96h32V128z" />
</svg>
